X:1
T:Title
%%score 1 { 2 | 3 }
L:1/8
Q:1/4=140
M:3/2
K:Bb
V:1 treble nm="Grand Piano, Staff 1"
V:2 bass nm="Choir Pad, Malone, 88.68.86"
V:3 bass 
V:1
 [DF]4 [DB]3 [DB] [DB]2 [B,D]2 | [CE]2 [DF]2 [EG]8 | [EG]4 [EG]3 [EG] [EG]2 [EG]2 | %3
w: By~Luther~Orlando~Emerson,~1869 * * * *|||
 [FA]2 [EA]2 [DB]8 | [Fd]4 [Fd]2 [Gc]2 [GB]4 | [^FA]4 G8 | [DF]4 [Fd]3 [Fd] [Fd]2 [Ec]2 | %7
w: ||||
 [DB]2 [EG]2 [DF]8 | [DF]4 [FB]3 [FB] [Fc]2 [Fc]2 | [Fd]2 [FB]2 [Fc]8 | [Ff]4 [Fd]2 [FB]2 [EG]4 | %11
w: ||||
 [EA]4 [DB]8- | [DB]4 z4 z4 |] %13
w: ||
V:2
 B,4 F,3 F, F,2 F,2 | B,2 B,2 B,8 | B,4 B,3 B,[K:treble] C2 C2 | C2 C2 B,8 | B,4 D2 E2 D4 | %5
 C4[K:bass] B,8 | B,4 B,3 B, B,2 B,2 | B,2 B,2 B,8 | B,4 B,3 B, A,2 A,2 | B,2 B,2 A,8 | %10
 A,4 B,2 B,2 B,4 | F,4 F,8- | F,4 z4 z4 |] %13
V:3
 B,,4 B,,3 B,, B,,2 B,,2 | B,,2 B,,2 E,8 | E,4 E,3 E, C,2 C,2 | F,2 F,2 B,,8 | B,,4 B,,2 C,2 D,4 | %5
 D,4 G,,8 | B,,4 B,,3 B,, B,,2 B,,2 | B,,2 B,,2 B,,8 | B,,4 D,3 D, F,2 F,2 | z2 D,2 F,8 | %10
 F,4 z2 D,2 E,4 | z4 B,,8- | B,,4 z4 z4 |] %13

